packages/core/src/svgs/tokens/branded/APX.svg

<svg width="24" height="24" viewBox="0 0 24 24" fill="none" xmlns="http://www.w3.org/2000/svg">
<path fill-rule="evenodd" clip-rule="evenodd" d="M20.3367 6.74667C18.9195 10.0078 16.6011 12.7954 13.6548 14.7809C10.7086 16.7666 7.2571 17.8675 3.70706 17.9541C2.97233 16.8604 2.45989 15.6324 2.19895 14.3404C1.93801 13.0484 1.93371 11.7176 2.18632 10.4239C2.43889 9.13021 2.94338 7.8991 3.67107 6.80067C4.39868 5.70231 5.33518 4.75824 6.42711 4.02231C7.51905 3.28644 8.74497 2.77319 10.035 2.51181C11.325 2.25051 12.6537 2.24619 13.9453 2.49912C15.237 2.75213 16.4662 3.25744 17.5627 3.98625C18.6595 4.71505 19.6022 5.65304 20.3367 6.74667ZM20.7506 6.68417V5.43962C20.7507 5.42674 20.7541 5.41405 20.7605 5.40298C20.7668 5.39193 20.776 5.3828 20.7868 5.37662L21.8999 4.74649C21.9107 4.74012 21.9226 4.73675 21.9349 4.73675C21.947 4.73681 21.959 4.74012 21.9696 4.74655C21.9801 4.75294 21.9889 4.76212 21.9948 4.77318C22.001 4.78425 21.9999 4.79674 21.9999 4.80949V6.05405C21.9996 6.0668 22.0008 6.07924 21.9947 6.09029C21.9887 6.10136 21.98 6.11055 21.9695 6.11705L20.8549 6.74722C20.8441 6.75361 20.8323 6.75692 20.8199 6.75692C20.8078 6.75692 20.7958 6.75354 20.7852 6.74717C20.7747 6.74073 20.7659 6.73155 20.7598 6.72054C20.7538 6.70948 20.7506 6.69691 20.7506 6.68417ZM20.1276 18.1167C21.3449 16.4121 21.9996 14.3688 21.9996 12.2729C22.0001 10.7282 21.6426 9.20465 20.9556 7.82185C17.8249 11.8738 15.8406 16.6031 15.2106 21.6874C17.191 21.0103 18.9102 19.8213 20.1276 18.1167Z" fill="url(#paint0_linear_364_9097)"/>
<defs>
<linearGradient id="paint0_linear_364_9097" x1="5.73378" y1="6.46164" x2="18.2192" y2="19.7815" gradientUnits="userSpaceOnUse">
<stop stop-color="#AA42FC"/>
<stop offset="1" stop-color="#5A49FF"/>
</linearGradient>
</defs>
</svg>

<svg xmlns="http://www.w3.org/2000/svg" width="24" height="24" fill="none" viewBox="0 0 24 24">
    <path fill="url(#APX__a)" fill-rule="evenodd" d="M20.337 6.747a18.65 18.65 0 0 1-6.682 8.034 18.6 18.6 0 0 1-9.948 3.173 10.047 10.047 0 0 1 2.72-13.932 10.01 10.01 0 0 1 11.136-.036 10 10 0 0 1 2.774 2.76m.414-.063V5.44a.07.07 0 0 1 .036-.063l1.113-.63a.07.07 0 0 1 .095.027q.007.016.005.035v1.245q.001.02-.005.036a.1.1 0 0 1-.026.027l-1.114.63a.07.07 0 0 1-.095-.026.1.1 0 0 1-.01-.037m-.623 11.433A10.06 10.06 0 0 0 22 12.273a10 10 0 0 0-1.044-4.451c-3.131 4.052-5.115 8.781-5.745 13.865 1.98-.677 3.7-1.866 4.917-3.57" clip-rule="evenodd"/>
    <defs>
        <linearGradient id="APX__a" x1="5.734" x2="18.219" y1="6.462" y2="19.782" gradientUnits="userSpaceOnUse">
            <stop stop-color="#AA42FC"/>
            <stop offset="1" stop-color="#5A49FF"/>
        </linearGradient>
    </defs>
</svg>
